assets/images/tools/imgcook.svg

<svg height="80" viewBox="0 0 300 80" width="300" xmlns="http://www.w3.org/2000/svg"><path d="m0 0h300v80h-300z" fill="#fff"/><g fill="#545454" transform="translate(50 40)"><path d="m0 16q3 0 6 0 2-4 4-8 2 4 4 8 3 0 6 0-4-8-8-16-4 8-8 16z"/><path d="m22 0q0 8 0 16 3 0 6 0 0-8 0-16-3 0-6 0z"/><path d="m32 16q3 0 6 0 0-2 0-4 4 0 8 0 0 2 0 4 3 0 6 0 0-8 0-16-3 0-6 0-4 0-8 0-3 0-6 0 0 8 0 16zm6-8q0-2 0-4 4 0 8 0 0 2 0 4-4 0-8 0z"/><path d="m54 16q3 0 6 0 0-2 0-4 4 0 8 0 0 2 0 4 3 0 6 0 0-8 0-16-3 0-6 0-4 0-8 0-3 0-6 0 0 8 0 16zm6-8q0-2 0-4 4 0 8 0 0 2 0 4-4 0-8 0z"/><path d="m76 16q3 0 6 0 0-2 0-4 3 1 6 2 3-1 6-2 0 2 0 4 3 0 6 0 0-8 0-16-3 0-6 0 0 2 0 4-3-1-6-2-3 1-6 2 0-2 0-4-3 0-6 0 0 8 0 16z"/><path d="m104 0q-4 6-8 12-1 2-2 4 3 0 6 0 0-2 0-4 4 0 8 0 0 2 0 4 3 0 6 0-1-2-2-4-4-6-8-12zm-2 8q1-2 2-4 1 2 2 4-2 0-4 0z"/><path d="m118 16q6 0 12 0 0-3 0-6-3 0-6 0 0-2 0-4 3 0 6 0 0-3 0-6-6 0-12 0 0 8 0 16z"/></g><path d="m210 40q5 0 10-10 5 10 10 10m5-15a5 5 0 1 1 0 10m5-10v15" fill="none" stroke="#545454" stroke-width="3"/></svg>

<svg xmlns="http://www.w3.org/2000/svg" width="300" height="80" viewBox="0 0 300 80">
  <rect width="300" height="80" fill="#ffffff"/>
  <g transform="translate(50, 40) scale(1)">
    <path d="M0 16 Q3 16 6 16 Q8 12 10 8 Q12 12 14 16 Q17 16 20 16 Q16 8 12 0 Q8 8 4 16 Z" fill="#545454"/>
    <path d="M22 0 Q22 8 22 16 Q25 16 28 16 Q28 8 28 0 Q25 0 22 0 Z" fill="#545454"/>
    <path d="M32 16 Q35 16 38 16 Q38 14 38 12 Q42 12 46 12 Q46 14 46 16 Q49 16 52 16 Q52 8 52 0 Q49 0 46 0 Q42 0 38 0 Q35 0 32 0 Q32 8 32 16 Z M38 8 Q38 6 38 4 Q42 4 46 4 Q46 6 46 8 Q42 8 38 8 Z" fill="#545454"/>
    <path d="M54 16 Q57 16 60 16 Q60 14 60 12 Q64 12 68 12 Q68 14 68 16 Q71 16 74 16 Q74 8 74 0 Q71 0 68 0 Q64 0 60 0 Q57 0 54 0 Q54 8 54 16 Z M60 8 Q60 6 60 4 Q64 4 68 4 Q68 6 68 8 Q64 8 60 8 Z" fill="#545454"/>
    <path d="M76 16 Q79 16 82 16 Q82 14 82 12 Q85 13 88 14 Q91 13 94 12 Q94 14 94 16 Q97 16 100 16 Q100 8 100 0 Q97 0 94 0 Q94 2 94 4 Q91 3 88 2 Q85 3 82 4 Q82 2 82 0 Q79 0 76 0 Q76 8 76 16 Z" fill="#545454"/>
    <path d="M104 0 Q100 6 96 12 Q95 14 94 16 Q97 16 100 16 Q100 14 100 12 Q104 12 108 12 Q108 14 108 16 Q111 16 114 16 Q113 14 112 12 Q108 6 104 0 Z M102 8 Q103 6 104 4 Q105 6 106 8 Q104 8 102 8 Z" fill="#545454"/>
    <path d="M118 16 Q124 16 130 16 Q130 13 130 10 Q127 10 124 10 Q124 8 124 6 Q127 6 130 6 Q130 3 130 0 Q124 0 118 0 Q118 8 118 16 Z" fill="#545454"/>
  </g>
  <path d="M210 40 Q215 40 220 30 Q225 40 230 40 M235 25 A5 5 0 1 1 235 35 M240 25 L240 40" stroke="#545454" stroke-width="3" fill="none"/>
</svg>
